src/Assets/Icons/AppStoreGreen.svg

<svg width="319" height="72" viewBox="0 0 319 72" fill="none" xmlns="http://www.w3.org/2000/svg">
<rect x="0.500977" width="318" height="72" rx="14" fill="#199976"/>
<g clip-path="url(#clip0_1239_3820)">
<path d="M51.2453 31.3139C49.279 32.5289 48.0645 34.6119 48.0645 36.9262C48.0645 39.5299 49.626 41.9021 51.9971 42.8857C51.5344 44.3901 50.8404 45.7787 49.973 47.0516C48.7007 48.8453 47.3706 50.6968 45.4043 50.6968C43.438 50.6968 42.8597 49.5396 40.5465 49.5396C38.291 49.5396 37.4814 50.7546 35.6308 50.7546C33.7802 50.7546 32.5079 49.0767 31.0621 46.9938C29.1537 44.1008 28.0549 40.7449 27.9971 37.2155C27.9971 31.4874 31.6983 28.4209 35.3995 28.4209C37.3657 28.4209 38.985 29.6938 40.1995 29.6938C41.3561 29.6938 43.2067 28.363 45.4043 28.363C47.7176 28.3052 49.9151 29.4045 51.2453 31.3139ZM44.3633 25.9329C45.3465 24.7758 45.8669 23.3293 45.9248 21.8249C45.9248 21.6514 45.9248 21.4199 45.8669 21.2463C44.1898 21.4199 42.6284 22.2299 41.5296 23.5029C40.5465 24.6022 39.9682 25.9908 39.9103 27.4952C39.9103 27.6687 39.9103 27.8423 39.9682 28.0159C40.0838 28.0159 40.2573 28.0737 40.373 28.0737C41.9344 27.958 43.3802 27.148 44.3633 25.9329Z" fill="white"/>
</g>
<path d="M65.8604 43V28.9082H70.9482C75.1279 28.9082 77.5791 31.4863 77.5791 35.9102V35.9297C77.5791 40.4023 75.1475 43 70.9482 43H65.8604ZM68.0479 41.1152H70.7041C73.6533 41.1152 75.3525 39.2305 75.3525 35.959V35.9395C75.3525 32.6973 73.624 30.793 70.7041 30.793H68.0479V41.1152ZM84.7959 43.2051C81.6807 43.2051 79.7764 41.125 79.7764 37.707V37.6875C79.7764 34.2793 81.6904 32.1895 84.7959 32.1895C87.8916 32.1895 89.8057 34.2695 89.8057 37.6875V37.707C89.8057 41.125 87.9014 43.2051 84.7959 43.2051ZM84.7959 41.4375C86.6123 41.4375 87.6475 40.0508 87.6475 37.707V37.6875C87.6475 35.334 86.6123 33.957 84.7959 33.957C82.9697 33.957 81.9443 35.334 81.9443 37.6875V37.707C81.9443 40.0605 82.9697 41.4375 84.7959 41.4375ZM93.9658 43L91.0361 32.3945H93.165L95.0693 40.5781H95.2256L97.4131 32.3945H99.4248L101.612 40.5781H101.778L103.673 32.3945H105.772L102.853 43H100.675L98.4775 35.0898H98.3115L96.124 43H93.9658ZM107.94 43V32.3945H110.06V34.0059H110.216C110.733 32.873 111.749 32.1895 113.292 32.1895C115.665 32.1895 116.974 33.6055 116.974 36.1348V43H114.864V36.6328C114.864 34.875 114.132 34.0059 112.579 34.0059C111.026 34.0059 110.06 35.0703 110.06 36.7793V43H107.94ZM120.03 43V28.2344H122.149V43H120.03ZM129.796 43.2051C126.681 43.2051 124.776 41.125 124.776 37.707V37.6875C124.776 34.2793 126.69 32.1895 129.796 32.1895C132.892 32.1895 134.806 34.2695 134.806 37.6875V37.707C134.806 41.125 132.901 43.2051 129.796 43.2051ZM129.796 41.4375C131.612 41.4375 132.647 40.0508 132.647 37.707V37.6875C132.647 35.334 131.612 33.957 129.796 33.957C127.97 33.957 126.944 35.334 126.944 37.6875V37.707C126.944 40.0605 127.97 41.4375 129.796 41.4375ZM140.245 43.1758C138.224 43.1758 136.729 41.9453 136.729 40.0215V40.002C136.729 38.1074 138.155 37.0039 140.685 36.8477L143.556 36.6816V35.7441C143.556 34.582 142.823 33.9375 141.388 33.9375C140.216 33.9375 139.444 34.3672 139.19 35.1191L139.181 35.1582H137.14L137.149 35.0898C137.403 33.3516 139.073 32.1895 141.485 32.1895C144.151 32.1895 145.655 33.5176 145.655 35.7441V43H143.556V41.4961H143.39C142.765 42.5703 141.651 43.1758 140.245 43.1758ZM138.839 39.9336C138.839 40.9102 139.669 41.4863 140.812 41.4863C142.394 41.4863 143.556 40.4512 143.556 39.084V38.1758L140.968 38.3418C139.503 38.4297 138.839 38.957 138.839 39.9141V39.9336ZM152.511 43.1758C149.845 43.1758 148.116 41.0371 148.116 37.707V37.6875C148.116 34.3281 149.815 32.209 152.511 32.209C153.966 32.209 155.206 32.9316 155.772 34.0742H155.938V28.2344H158.048V43H155.938V41.3301H155.772C155.157 42.4922 153.995 43.1758 152.511 43.1758ZM153.116 41.3691C154.884 41.3691 155.968 39.9727 155.968 37.707V37.6875C155.968 35.4219 154.874 34.0254 153.116 34.0254C151.339 34.0254 150.274 35.4121 150.274 37.6875V37.707C150.274 39.9824 151.339 41.3691 153.116 41.3691ZM171.163 43.2051C168.048 43.2051 166.144 41.125 166.144 37.707V37.6875C166.144 34.2793 168.058 32.1895 171.163 32.1895C174.259 32.1895 176.173 34.2695 176.173 37.6875V37.707C176.173 41.125 174.269 43.2051 171.163 43.2051ZM171.163 41.4375C172.979 41.4375 174.015 40.0508 174.015 37.707V37.6875C174.015 35.334 172.979 33.957 171.163 33.957C169.337 33.957 168.312 35.334 168.312 37.6875V37.707C168.312 40.0605 169.337 41.4375 171.163 41.4375ZM178.702 43V32.3945H180.821V34.0059H180.978C181.495 32.873 182.511 32.1895 184.054 32.1895C186.427 32.1895 187.735 33.6055 187.735 36.1348V43H185.626V36.6328C185.626 34.875 184.894 34.0059 183.341 34.0059C181.788 34.0059 180.821 35.0703 180.821 36.7793V43H178.702ZM195.323 43L200.411 28.9082H202.774L207.862 43H205.558L204.288 39.1914H198.897L197.618 43H195.323ZM201.505 31.3789L199.483 37.4336H203.702L201.671 31.3789H201.505ZM210.069 46.5352V32.3945H212.188V34.0645H212.345C212.96 32.9023 214.122 32.209 215.606 32.209C218.282 32.209 220.001 34.3477 220.001 37.6875V37.707C220.001 41.0664 218.302 43.1758 215.606 43.1758C214.151 43.1758 212.911 42.4629 212.345 41.3203H212.188V46.5352H210.069ZM215.011 41.3691C216.778 41.3691 217.843 39.9824 217.843 37.707V37.6875C217.843 35.4023 216.778 34.0254 215.011 34.0254C213.243 34.0254 212.149 35.4219 212.149 37.6875V37.707C212.149 39.9727 213.243 41.3691 215.011 41.3691ZM222.55 46.5352V32.3945H224.669V34.0645H224.825C225.44 32.9023 226.603 32.209 228.087 32.209C230.763 32.209 232.481 34.3477 232.481 37.6875V37.707C232.481 41.0664 230.782 43.1758 228.087 43.1758C226.632 43.1758 225.392 42.4629 224.825 41.3203H224.669V46.5352H222.55ZM227.491 41.3691C229.259 41.3691 230.323 39.9824 230.323 37.707V37.6875C230.323 35.4023 229.259 34.0254 227.491 34.0254C225.724 34.0254 224.63 35.4219 224.63 37.6875V37.707C224.63 39.9727 225.724 41.3691 227.491 41.3691ZM245.509 43.3418C242.325 43.3418 240.284 41.7305 240.089 39.3574L240.079 39.2305H242.228L242.237 39.3379C242.354 40.6172 243.712 41.4375 245.597 41.4375C247.394 41.4375 248.673 40.5391 248.673 39.2305V39.2207C248.673 38.1367 247.911 37.4336 246.046 37.0332L244.503 36.7012C241.642 36.0957 240.411 34.7676 240.411 32.6875V32.6777C240.421 30.2461 242.53 28.5664 245.519 28.5664C248.507 28.5664 250.46 30.2559 250.616 32.4434L250.626 32.5801H248.507L248.487 32.4531C248.302 31.3008 247.198 30.4609 245.489 30.4707C243.839 30.4707 242.618 31.2422 242.618 32.5703V32.5801C242.618 33.625 243.36 34.3086 245.187 34.6992L246.72 35.041C249.679 35.6758 250.89 36.8672 250.89 38.957V38.9668C250.89 41.6621 248.79 43.3418 245.509 43.3418ZM257.53 43.0684C255.196 43.0684 254.239 42.248 254.239 40.207V34.0645H252.579V32.3945H254.239V29.7188H256.397V32.3945H258.673V34.0645H256.397V39.6992C256.397 40.8418 256.827 41.3105 257.872 41.3105C258.194 41.3105 258.38 41.3008 258.673 41.2715V42.9609C258.331 43.0195 257.94 43.0684 257.53 43.0684ZM265.519 43.2051C262.403 43.2051 260.499 41.125 260.499 37.707V37.6875C260.499 34.2793 262.413 32.1895 265.519 32.1895C268.614 32.1895 270.528 34.2695 270.528 37.6875V37.707C270.528 41.125 268.624 43.2051 265.519 43.2051ZM265.519 41.4375C267.335 41.4375 268.37 40.0508 268.37 37.707V37.6875C268.37 35.334 267.335 33.957 265.519 33.957C263.692 33.957 262.667 35.334 262.667 37.6875V37.707C262.667 40.0605 263.692 41.4375 265.519 41.4375ZM273.058 43V32.3945H275.177V33.9961H275.333C275.714 32.873 276.7 32.209 278.116 32.209C278.458 32.209 278.829 32.2578 279.044 32.3066V34.2598C278.663 34.1816 278.302 34.1328 277.901 34.1328C276.28 34.1328 275.177 35.1289 275.177 36.6621V43H273.058ZM285.245 43.2051C282.14 43.2051 280.265 41.0859 280.265 37.7266V37.7168C280.265 34.4062 282.179 32.1895 285.138 32.1895C288.097 32.1895 289.913 34.3281 289.913 37.5117V38.2539H282.394C282.433 40.2852 283.546 41.4668 285.294 41.4668C286.651 41.4668 287.462 40.793 287.716 40.2461L287.755 40.168L289.796 40.1582L289.776 40.2461C289.425 41.6426 287.96 43.2051 285.245 43.2051ZM285.147 33.9277C283.702 33.9277 282.608 34.9141 282.423 36.7402H287.813C287.647 34.8457 286.583 33.9277 285.147 33.9277Z" fill="white"/>
<defs>
<clipPath id="clip0_1239_3820">
<rect width="24" height="29.5083" fill="white" transform="translate(28.001 21.2458)"/>
</clipPath>
</defs>
</svg>

<svg width="319" height="72" fill="none" xmlns="http://www.w3.org/2000/svg"><rect x=".501" width="318" height="72" rx="14" fill="#199976"/><g clip-path="url(#a)"><path d="M51.245 31.314c-1.966 1.215-3.18 3.298-3.18 5.612 0 2.604 1.561 4.976 3.932 5.96a15.459 15.459 0 0 1-2.024 4.166c-1.272 1.793-2.602 3.645-4.569 3.645-1.966 0-2.544-1.157-4.858-1.157-2.255 0-3.065 1.215-4.915 1.215s-3.123-1.678-4.569-3.761c-1.908-2.893-3.007-6.25-3.065-9.779 0-5.728 3.701-8.794 7.403-8.794 1.966 0 3.585 1.273 4.8 1.273 1.156 0 3.007-1.331 5.204-1.331a6.903 6.903 0 0 1 5.841 2.95Zm-6.882-5.381c.983-1.157 1.504-2.604 1.562-4.108 0-.174 0-.405-.058-.579a6.647 6.647 0 0 0-4.337 2.257 6.317 6.317 0 0 0-1.62 3.992c0 .174 0 .347.058.52.116 0 .29.059.405.059 1.561-.116 3.007-.926 3.99-2.141Z" fill="#fff"/></g><path d="M65.86 43V28.908h5.088c4.18 0 6.631 2.578 6.631 7.002v.02c0 4.472-2.431 7.07-6.63 7.07H65.86Zm2.188-1.885h2.656c2.95 0 4.649-1.885 4.649-5.156v-.02c0-3.242-1.729-5.146-4.649-5.146h-2.656v10.322Zm16.748 2.09c-3.115 0-5.02-2.08-5.02-5.498v-.02c0-3.408 1.914-5.497 5.02-5.497 3.096 0 5.01 2.08 5.01 5.498v.019c0 3.418-1.905 5.498-5.01 5.498Zm0-1.767c1.816 0 2.851-1.387 2.851-3.731v-.02c0-2.353-1.035-3.73-2.851-3.73-1.826 0-2.852 1.377-2.852 3.73v.02c0 2.353 1.026 3.73 2.852 3.73ZM93.966 43l-2.93-10.605h2.129l1.904 8.183h.157l2.187-8.184h2.012l2.187 8.184h.166l1.895-8.184h2.099L102.853 43h-2.178l-2.197-7.91h-.166L96.123 43h-2.158Zm13.974 0V32.395h2.12v1.61h.156c.517-1.132 1.533-1.816 3.076-1.816 2.373 0 3.682 1.416 3.682 3.946V43h-2.11v-6.367c0-1.758-.732-2.627-2.285-2.627-1.553 0-2.519 1.064-2.519 2.773V43h-2.12Zm12.09 0V28.234h2.119V43h-2.119Zm9.766.205c-3.115 0-5.02-2.08-5.02-5.498v-.02c0-3.408 1.914-5.497 5.02-5.497 3.096 0 5.01 2.08 5.01 5.498v.019c0 3.418-1.905 5.498-5.01 5.498Zm0-1.767c1.816 0 2.851-1.387 2.851-3.731v-.02c0-2.353-1.035-3.73-2.851-3.73-1.826 0-2.852 1.377-2.852 3.73v.02c0 2.353 1.026 3.73 2.852 3.73Zm10.449 1.738c-2.021 0-3.516-1.23-3.516-3.154v-.02c0-1.895 1.426-2.998 3.956-3.154l2.871-.166v-.938c0-1.162-.733-1.806-2.168-1.806-1.172 0-1.944.43-2.198 1.181l-.009.04h-2.041l.009-.07c.254-1.737 1.924-2.9 4.336-2.9 2.666 0 4.17 1.329 4.17 3.555V43h-2.099v-1.504h-.166c-.625 1.074-1.739 1.68-3.145 1.68Zm-1.406-3.242c0 .976.83 1.552 1.973 1.552 1.582 0 2.744-1.035 2.744-2.402v-.908l-2.588.166c-1.465.088-2.129.615-2.129 1.572v.02Zm13.672 3.242c-2.666 0-4.395-2.139-4.395-5.469v-.02c0-3.359 1.699-5.478 4.395-5.478 1.455 0 2.695.723 3.261 1.865h.166v-5.84h2.11V43h-2.11v-1.67h-.166c-.615 1.162-1.777 1.846-3.261 1.846Zm.605-1.807c1.768 0 2.852-1.396 2.852-3.662v-.02c0-2.265-1.094-3.662-2.852-3.662-1.777 0-2.842 1.387-2.842 3.663v.019c0 2.275 1.065 3.662 2.842 3.662Zm18.047 1.836c-3.115 0-5.019-2.08-5.019-5.498v-.02c0-3.408 1.914-5.497 5.019-5.497 3.096 0 5.01 2.08 5.01 5.498v.019c0 3.418-1.904 5.498-5.01 5.498Zm0-1.767c1.816 0 2.852-1.387 2.852-3.731v-.02c0-2.353-1.036-3.73-2.852-3.73-1.826 0-2.851 1.377-2.851 3.73v.02c0 2.353 1.025 3.73 2.851 3.73ZM178.702 43V32.395h2.119v1.61h.157c.517-1.132 1.533-1.816 3.076-1.816 2.373 0 3.681 1.416 3.681 3.946V43h-2.109v-6.367c0-1.758-.732-2.627-2.285-2.627-1.553 0-2.52 1.064-2.52 2.773V43h-2.119Zm16.621 0 5.088-14.092h2.363L207.862 43h-2.304l-1.27-3.809h-5.391L197.618 43h-2.295Zm6.182-11.621-2.022 6.055h4.219l-2.031-6.055h-.166Zm8.564 15.156v-14.14h2.119v1.67h.157c.615-1.163 1.777-1.856 3.261-1.856 2.676 0 4.395 2.139 4.395 5.478v.02c0 3.36-1.699 5.469-4.395 5.469-1.455 0-2.695-.713-3.261-1.856h-.157v5.215h-2.119Zm4.942-5.166c1.767 0 2.832-1.387 2.832-3.662v-.02c0-2.285-1.065-3.662-2.832-3.662-1.768 0-2.862 1.397-2.862 3.663v.019c0 2.266 1.094 3.662 2.862 3.662Zm7.539 5.166v-14.14h2.119v1.67h.156c.615-1.163 1.778-1.856 3.262-1.856 2.676 0 4.394 2.139 4.394 5.478v.02c0 3.36-1.699 5.469-4.394 5.469-1.455 0-2.695-.713-3.262-1.856h-.156v5.215h-2.119Zm4.941-5.166c1.768 0 2.832-1.387 2.832-3.662v-.02c0-2.285-1.064-3.662-2.832-3.662-1.767 0-2.861 1.397-2.861 3.663v.019c0 2.266 1.094 3.662 2.861 3.662Zm18.018 1.973c-3.184 0-5.225-1.611-5.42-3.985l-.01-.127h2.149l.009.108c.117 1.28 1.475 2.1 3.36 2.1 1.797 0 3.076-.899 3.076-2.208v-.01c0-1.083-.762-1.786-2.627-2.187l-1.543-.332c-2.861-.605-4.092-1.933-4.092-4.014v-.01c.01-2.43 2.119-4.11 5.108-4.11 2.988 0 4.941 1.689 5.097 3.876l.01.137h-2.119l-.02-.127c-.185-1.152-1.289-1.992-2.998-1.982-1.65 0-2.871.771-2.871 2.1v.01c0 1.044.742 1.728 2.569 2.118l1.533.342c2.959.635 4.17 1.826 4.17 3.916v.01c0 2.695-2.1 4.375-5.381 4.375Zm12.021-.274c-2.334 0-3.291-.82-3.291-2.861v-6.142h-1.66v-1.67h1.66v-2.676h2.158v2.675h2.276v1.67h-2.276V39.7c0 1.143.43 1.611 1.475 1.611.322 0 .508-.01.801-.038v1.689a6.79 6.79 0 0 1-1.143.107Zm7.989.137c-3.116 0-5.02-2.08-5.02-5.498v-.02c0-3.408 1.914-5.497 5.02-5.497 3.095 0 5.009 2.08 5.009 5.498v.019c0 3.418-1.904 5.498-5.009 5.498Zm0-1.767c1.816 0 2.851-1.387 2.851-3.731v-.02c0-2.353-1.035-3.73-2.851-3.73-1.827 0-2.852 1.377-2.852 3.73v.02c0 2.353 1.025 3.73 2.852 3.73ZM273.058 43V32.395h2.119v1.601h.156c.381-1.123 1.367-1.787 2.783-1.787.342 0 .713.049.928.098v1.953a5.53 5.53 0 0 0-1.143-.127c-1.621 0-2.724.996-2.724 2.53V43h-2.119Zm12.187.205c-3.105 0-4.98-2.12-4.98-5.478v-.01c0-3.31 1.914-5.527 4.873-5.527 2.959 0 4.775 2.138 4.775 5.322v.742h-7.519c.039 2.031 1.152 3.213 2.9 3.213 1.357 0 2.168-.674 2.422-1.22l.039-.079 2.041-.01-.02.088c-.351 1.397-1.816 2.96-4.531 2.96Zm-.098-9.277c-1.445 0-2.539.986-2.724 2.812h5.39c-.166-1.894-1.23-2.812-2.666-2.812Z" fill="#fff"/><defs><clipPath id="a"><path fill="#fff" transform="translate(28.001 21.246)" d="M0 0h24v29.508H0z"/></clipPath></defs></svg>
